X:1
T:Title
%%score { ( 1 3 ) | ( 2 4 ) }
L:1/8
Q:1/4=100
M:4/4
K:Ab
V:1 treble nm="Grand Piano"
V:3 treble 
V:2 bass 
V:4 bass 
V:1
 [Ec][Ec][DB][Ec] [CA]2 [CA]2 | [FB][FA][FA][DF] [CE]2 [CE][CE] | [DF][DG][EA]B c2 c2 | B6 z2 | %4
w: J.~H.~Hall * * * * *||||
 [Ec][Ec][DB][Ec] [CA]2 [CA]2 | [FB][FA][FA][DF] [CE]2 [CE][CE] | [DF][DG][EA][FB] [Ec]2 [DB]2 | %7
w: |||
 [CA]6 z2 | [Ae]4 z4 | [CA]4 z4 | [DF][DG][EA]B c2 c2 | B6 z2 | e4 z4 | [CA]4 z4 | %14
w: |||||||
 [DF][DG][EA][FB] [Ec]2 [DB]2 | [CA]6 z2 |] %16
w: ||
V:2
 [A,,A,][A,,A,][A,,A,][A,,A,] [A,,A,]2 [A,,A,]2 | [D,A,][D,D][D,D][D,A,] [A,,A,]2 [A,,A,][A,,A,] | %2
 [D,A,][B,,B,][C,A,][E,G,E] [A,E]2 [A,E]2 | [E,G,E]6 z2 | %4
 [A,,A,][A,,A,][A,,A,][A,,A,] [A,,A,]2 [A,,A,]2 | [D,A,][D,D][D,D][D,A,] [A,,A,]2 [A,,A,][A,,A,] | %6
 [D,A,][B,,B,][C,A,][D,A,] [E,A,]2 [E,G,]2 | [A,,A,]6 z2 | %8
 [A,C]A,A,A,[K:treble] [A,EA][A,CE][A,D][A,E] | A,[K:bass]A,A,,A,, [A,,A,]2 [A,,A,][A,,A,] | %10
 [D,A,][B,,B,][C,A,][E,G,E] [A,E]2 [A,E]2 | [E,G,E]6 z2 | A4 z4[K:bass] | %13
 A,A,A,,A,, [A,,A,]2 [A,,A,][A,,A,] | [D,A,][B,,B,][C,A,][D,A,] [E,A,]2 [E,G,]2 | [A,,A,]6 z2 |] %16
V:3
 x8 | x8 | x8 | x8 | x8 | x8 | x8 | x8 | z CCC cABc | z2 A,A, [CE]2 [CE][CE] | x8 | x8 | %12
 z CCe cABc | z2 A,A, [CE]2 [CE][CE] | x8 | x8 |] %16
V:4
 x8 | x8 | x8 | x8 | x8 | x8 | x8 | x8 | x4[K:treble] x4 | x[K:bass] x7 | x8 | x8 | %12
 [A,C]A,A,[A,CA] [A,EA][K:bass][A,CE][A,D][A,E] | x8 | x8 | x8 |] %16

